dist/img/icons/arrows/arrow-right.svg

<svg width="24" height="12" viewBox="0 0 24 12" fill="none" xmlns="http://www.w3.org/2000/svg">
<path d="M23.2064 6.53814C23.4992 6.24525 23.4992 5.77038 23.2064 5.47748L18.4334 0.704512C18.1405 0.411618 17.6656 0.411618 17.3727 0.704512C17.0798 0.997405 17.0798 1.47228 17.3727 1.76517L21.6154 6.00781L17.3727 10.2505C17.0798 10.5433 17.0798 11.0182 17.3727 11.3111C17.6656 11.604 18.1405 11.604 18.4334 11.3111L23.2064 6.53814ZM0.676025 6.75781H22.676V5.25781H0.676025V6.75781Z" fill="#FFF8F5"/>
</svg>

<svg width="24" height="12" fill="none" xmlns="http://www.w3.org/2000/svg"><path d="M23.206 6.538a.75.75 0 000-1.06L18.433.704a.75.75 0 00-1.06 1.06l4.242 4.243-4.242 4.243a.75.75 0 101.06 1.06l4.773-4.773zm-22.53.22h22v-1.5h-22v1.5z" fill="#FFF8F5"/></svg>
